svg/in-progress.svg

<?xml version="1.0" encoding="UTF-8"?>
<svg xmlns="http://www.w3.org/2000/svg" xmlns:xlink="http://www.w3.org/1999/xlink" width="32" height="32" viewBox="0 0 32 32">
<path fill-rule="nonzero" fill="rgb(0%, 0%, 0%)" fill-opacity="1" d="M 16 1.28125 C 15.433594 1.28125 14.886719 1.316406 14.351562 1.378906 L 14.640625 3.921875 C 15.09375 3.871094 15.546875 3.839844 16 3.839844 C 22.730469 3.839844 28.160156 9.269531 28.160156 16 C 28.160156 22.730469 22.730469 28.160156 16 28.160156 C 15.550781 28.160156 15.101562 28.128906 14.644531 28.078125 L 14.363281 30.625 C 14.890625 30.683594 15.4375 30.71875 16 30.71875 C 24.113281 30.71875 30.71875 24.113281 30.71875 16 C 30.71875 7.886719 24.113281 1.28125 16 1.28125 M 11.140625 2.117188 C 10.089844 2.484375 9.097656 2.964844 8.171875 3.546875 L 9.535156 5.714844 C 10.304688 5.230469 11.128906 4.832031 11.984375 4.53125 Z M 5.589844 5.59375 C 4.816406 6.375 4.128906 7.242188 3.546875 8.175781 L 5.710938 9.539062 C 6.191406 8.765625 6.757812 8.050781 7.398438 7.402344 Z M 21.335938 8.890625 L 14.472656 19.1875 L 9.808594 15.042969 L 8.109375 16.957031 L 14.96875 23.054688 L 23.464844 10.308594 Z M 2.113281 11.144531 C 1.746094 12.183594 1.5 13.261719 1.375 14.359375 L 3.921875 14.640625 C 4.023438 13.726562 4.234375 12.84375 4.53125 11.992188 Z M 3.921875 17.367188 L 1.378906 17.652344 C 1.503906 18.773438 1.761719 19.84375 2.117188 20.863281 L 4.535156 20.015625 C 4.234375 19.164062 4.023438 18.28125 3.921875 17.367188 M 5.714844 22.464844 L 3.550781 23.832031 C 4.132812 24.765625 4.820312 25.632812 5.597656 26.414062 L 7.40625 24.601562 C 6.761719 23.957031 6.195312 23.238281 5.714844 22.464844 M 9.542969 26.289062 L 8.179688 28.457031 C 9.113281 29.042969 10.109375 29.523438 11.148438 29.886719 L 11.996094 27.46875 C 11.128906 27.167969 10.308594 26.769531 9.542969 26.289062 M 9.542969 26.289062 "/>
</svg>

<svg role="img" viewBox="0 0 32 32" height="32" width="32" xmlns="http://www.w3.org/2000/svg"><path d="M16 1.281c-.566 0-1.113.035-1.648.098l.289 2.543c.453-.05.906-.082 1.359-.082 6.73 0 12.16 5.43 12.16 12.16S22.73 28.16 16 28.16c-.45 0-.898-.031-1.355-.082l-.282 2.547c.528.059 1.075.094 1.637.094 8.113 0 14.719-6.606 14.719-14.719S24.113 1.281 16 1.281m-4.86.836c-1.05.367-2.042.848-2.968 1.43l1.363 2.168a12.31 12.31 0 0 1 2.45-1.184ZM5.59 5.594a14.702 14.702 0 0 0-2.043 2.582L5.71 9.539a12.248 12.248 0 0 1 1.687-2.137ZM21.336 8.89l-6.863 10.297-4.664-4.145-1.7 1.914 6.86 6.098 8.496-12.746ZM2.113 11.145a14.707 14.707 0 0 0-.738 3.214l2.547.282c.101-.914.312-1.797.61-2.649Zm1.809 6.222-2.543.285c.125 1.121.383 2.192.738 3.211l2.418-.847c-.3-.852-.512-1.735-.613-2.649m1.793 5.098L3.55 23.832a14.725 14.725 0 0 0 2.047 2.582l1.808-1.812a12.124 12.124 0 0 1-1.691-2.137m3.828 3.824L8.18 28.457a14.752 14.752 0 0 0 2.968 1.43l.848-2.418c-.867-.301-1.687-.7-2.453-1.18m0 0"/></svg>
